build/svg/cmd/32/halfsphere.svg

<?xml version="1.0" encoding="UTF-8" standalone="no"?>
<svg
   xmlns:dc="http://purl.org/dc/elements/1.1/"
   xmlns:cc="http://creativecommons.org/ns#"
   xmlns:rdf="http://www.w3.org/1999/02/22-rdf-syntax-ns#"
   xmlns:svg="http://www.w3.org/2000/svg"
   xmlns="http://www.w3.org/2000/svg"
   xmlns:sodipodi="http://sodipodi.sourceforge.net/DTD/sodipodi-0.dtd"
   xmlns:inkscape="http://www.inkscape.org/namespaces/inkscape"
   height="32"
   viewBox="0 0 32 32"
   width="32"
   version="1.1"
   id="svg13"
   sodipodi:docname="halfsphere.svg"
   inkscape:export-filename="/home/jupiter007/Libreoffice yaru theme fullcolor/build/cmd/32/halfsphere.png"
   inkscape:export-xdpi="96"
   inkscape:export-ydpi="96"
   inkscape:version="0.92.5 (2060ec1f9f, 2020-04-08)">
  <metadata
     id="metadata19">
    <rdf:RDF>
      <cc:Work
         rdf:about="">
        <dc:format>image/svg+xml</dc:format>
        <dc:type
           rdf:resource="http://purl.org/dc/dcmitype/StillImage" />
      </cc:Work>
    </rdf:RDF>
  </metadata>
  <defs
     id="defs17" />
  <sodipodi:namedview
     pagecolor="#ffffff"
     bordercolor="#666666"
     borderopacity="1"
     objecttolerance="10"
     gridtolerance="10"
     guidetolerance="10"
     inkscape:pageopacity="0"
     inkscape:pageshadow="2"
     inkscape:window-width="1920"
     inkscape:window-height="1011"
     id="namedview15"
     showgrid="false"
     inkscape:zoom="14.75"
     inkscape:cx="11.08386"
     inkscape:cy="17.941125"
     inkscape:window-x="0"
     inkscape:window-y="32"
     inkscape:window-maximized="1"
     inkscape:current-layer="svg13" />
  <linearGradient
     id="a"
     gradientUnits="userSpaceOnUse"
     x1="4"
     x2="22"
     y1="19"
     y2="19"
     gradientTransform="translate(-1e-6,-5e-5)">
    <stop
       offset="0"
       stop-color="#b3b3b3"
       id="stop2" />
    <stop
       offset="1"
       stop-color="#232629"
       id="stop4" />
  </linearGradient>
  <path
     style="fill:#000000;fill-rule:evenodd;fill-opacity:1;stroke:#000000;opacity:0.6;stroke-width:2;stroke-miterlimit:4;stroke-dasharray:none;stroke-linejoin:round"
     d="M 16 7 A 12 6 0 0 0 4 13 A 12 6 0 0 0 5.4609375 15.869141 C 4.7114209 15.184852 4.2119229 14.421964 4.046875 13.609375 C 4.3687255 19.949275 9.5799955 25 16 25 C 22.420005 25 27.631275 19.949275 27.953125 13.609375 C 27.716735 14.773209 26.808176 15.837626 25.431641 16.708984 A 12 6 0 0 0 28 13 A 12 6 0 0 0 16 7 z M 5.4882812 15.892578 A 12 6 0 0 0 6.0488281 16.349609 C 5.8485219 16.201631 5.6620651 16.049533 5.4882812 15.892578 z M 6.1796875 16.443359 A 12 6 0 0 0 6.7304688 16.804688 C 6.537635 16.687716 6.3546688 16.567485 6.1796875 16.443359 z M 25.285156 16.796875 C 25.08589 16.918224 24.879471 17.03529 24.662109 17.148438 A 12 6 0 0 0 25.285156 16.796875 z M 6.9179688 16.917969 A 12 6 0 0 0 7.4785156 17.21875 C 7.2850874 17.121308 7.0977703 17.021806 6.9179688 16.917969 z M 24.472656 17.242188 C 24.274196 17.341042 24.071178 17.437518 23.859375 17.529297 A 12 6 0 0 0 24.472656 17.242188 z M 7.7519531 17.355469 A 12 6 0 0 0 8.3886719 17.632812 C 8.1706344 17.54331 7.9567873 17.452284 7.7519531 17.355469 z M 23.548828 17.658203 C 23.346306 17.740207 23.138847 17.819125 22.925781 17.894531 A 12 6 0 0 0 23.548828 17.658203 z M 8.5996094 17.720703 A 12 6 0 0 0 9.3125 17.976562 C 9.0693699 17.894816 8.8297235 17.81087 8.5996094 17.720703 z M 22.623047 17.998047 C 22.410984 18.068356 22.193846 18.133645 21.972656 18.197266 A 12 6 0 0 0 22.623047 17.998047 z M 9.5742188 18.066406 A 12 6 0 0 0 10.556641 18.347656 A 12 6 0 0 0 12.748047 18.775391 C 11.984691 18.668086 11.250629 18.524472 10.556641 18.347656 C 10.218955 18.26162 9.8925952 18.167463 9.5742188 18.066406 z M 21.621094 18.296875 C 21.361256 18.365897 21.094911 18.430687 20.824219 18.490234 A 12 6 0 0 0 21.621094 18.296875 z M 20.615234 18.535156 C 20.336219 18.593374 20.050872 18.645596 19.761719 18.693359 A 12 6 0 0 0 20.615234 18.535156 z M 19.478516 18.742188 C 19.207872 18.783144 18.930637 18.816184 18.652344 18.847656 A 12 6 0 0 0 19.478516 18.742188 z M 13.001953 18.804688 A 12 6 0 0 0 13.888672 18.904297 C 13.588422 18.877595 13.294101 18.842337 13.001953 18.804688 z M 18.341797 18.884766 C 18.066192 18.912067 17.785889 18.929581 17.503906 18.947266 A 12 6 0 0 0 18.341797 18.884766 z M 14.230469 18.927734 A 12 6 0 0 0 15.027344 18.976562 C 14.758117 18.965738 14.494441 18.947307 14.230469 18.927734 z "
     id="path828" />
  <path
     inkscape:connector-curvature="0"
     style="fill:#b6b6b6;fill-rule:evenodd;fill-opacity:1"
     id="path7"
     d="m 4.046874,13.609325 c 0.3218505,6.3399 5.5331205,11.390625 11.953125,11.390625 6.420005,0 11.631275,-5.050725 11.953125,-11.390625 -0.61452,3.0255 -5.739921,5.390625 -11.953125,5.390625 -6.213204,0 -11.338605,-2.365125 -11.953125,-5.390625 z" />
  <path
     style="opacity:1;fill:#ffffff"
     inkscape:connector-curvature="0"
     id="path9"
     d="m 15.999999,6.99995 a 12,6 0 0 0 -12,6 12,6 0 0 0 12,6 12,6 0 0 0 12,-6 12,6 0 0 0 -12,-6 z" />
</svg>

<svg xmlns="http://www.w3.org/2000/svg" height="32" width="32"><path d="M16 7a12 6 0 00-12 6 12 6 0 001.46 2.87c-.749-.685-1.248-1.448-1.413-2.26C4.369 19.95 9.58 25 16 25c6.42 0 11.631-5.05 11.953-11.39-.236 1.163-1.145 2.228-2.521 3.099A12 6 0 0028 13a12 6 0 00-12-6zM5.488 15.893a12 6 0 00.56.457c-.2-.148-.386-.3-.56-.457zm.692.55a12 6 0 00.55.362 9.17 9.17 0 01-.55-.362zm19.105.354c-.2.121-.406.238-.623.351a12 6 0 00.623-.351zm-18.367.121a12 6 0 00.56.3 11.17 11.17 0 01-.56-.3zm17.555.324a12.67 12.67 0 01-.614.287 12 6 0 00.614-.287zm-16.721.113a12 6 0 00.637.278c-.218-.09-.432-.18-.637-.278zm15.797.303c-.203.082-.41.161-.623.237a12 6 0 00.623-.237zm-14.95.063a12 6 0 00.713.256 15.519 15.519 0 01-.712-.256zm14.024.277c-.212.07-.43.136-.65.2a12 6 0 00.65-.2zm-13.049.068a12 6 0 00.983.282 12 6 0 002.191.427 20.395 20.395 0 01-2.191-.427c-.338-.086-.664-.18-.983-.282zm12.047.23c-.26.07-.526.135-.797.194a12 6 0 00.797-.193zm-1.006.24c-.279.057-.564.11-.853.157a12 6 0 00.853-.158zm-1.136.206c-.271.041-.548.074-.827.106a12 6 0 00.827-.106zm-6.477.063a12 6 0 00.887.1c-.3-.027-.595-.063-.887-.1zm5.34.08c-.276.027-.556.045-.838.062a12 6 0 00.838-.062zm-4.112.043a12 6 0 00.797.049c-.269-.011-.533-.03-.797-.05z" fill-rule="evenodd" stroke="#000" opacity=".6" stroke-width="2" stroke-linejoin="round"/><path d="M4.047 13.61C4.369 19.95 9.58 25 16 25c6.42 0 11.631-5.05 11.953-11.39C27.34 16.634 22.213 19 16 19c-6.213 0-11.339-2.365-11.953-5.39z" fill="#b6b6b6" fill-rule="evenodd"/><path d="M16 7a12 6 0 00-12 6 12 6 0 0012 6 12 6 0 0012-6 12 6 0 00-12-6z" fill="#fff"/></svg>
